svg/line/folder-open.svg

<svg xmlns="http://www.w3.org/2000/svg" data-name="Layer 1" viewBox="0 0 24 24"><path d="M22.78 10.37A1 1 0 0 0 22 10h-2V9a3 3 0 0 0-3-3h-6.28l-.32-1a3 3 0 0 0-2.84-2H4a3 3 0 0 0-3 3v12a3 3 0 0 0 3 3h14.4a3 3 0 0 0 2.92-2.35L23 11.22a1 1 0 0 0-.22-.85ZM5.37 18.22a1 1 0 0 1-1 .78H4a1 1 0 0 1-1-1V6a1 1 0 0 1 1-1h3.56a1 1 0 0 1 1 .68l.54 1.64A1 1 0 0 0 10 8h7a1 1 0 0 1 1 1v1H8a1 1 0 0 0-1 .78Zm14 0a1 1 0 0 1-1 .78H7.21a1.42 1.42 0 0 0 .11-.35L8.8 12h12Z"/></svg>

<svg xmlns="http://www.w3.org/2000/svg" data-name="Layer 1" viewBox="0 0 24 24"><path d="M22.78,10.37A1,1,0,0,0,22,10H20V9a3,3,0,0,0-3-3H10.72l-.32-1A3,3,0,0,0,7.56,3H4A3,3,0,0,0,1,6V18a3,3,0,0,0,3,3H18.4a3,3,0,0,0,2.92-2.35L23,11.22A1,1,0,0,0,22.78,10.37ZM5.37,18.22a1,1,0,0,1-1,.78H4a1,1,0,0,1-1-1V6A1,1,0,0,1,4,5H7.56a1,1,0,0,1,1,.68l.54,1.64A1,1,0,0,0,10,8h7a1,1,0,0,1,1,1v1H8a1,1,0,0,0-1,.78Zm14,0a1,1,0,0,1-1,.78H7.21a1.42,1.42,0,0,0,.11-.35L8.8,12h12Z"/></svg>
